assets/images/dell.svg

<svg width="118" height="118" viewBox="0 0 118 118" fill="none" xmlns="http://www.w3.org/2000/svg">
<circle cx="59.3255" cy="59.0032" r="58.177" fill="white" stroke="#022F45"/>
<g clip-path="url(#clip0_51_8642)">
<path d="M87.8343 71.6241C87.8343 73.6425 87.61 80.3331 84.774 86.5004C84.0978 87.995 83.263 89.4126 82.2838 90.7288C81.7317 91.4953 81.1057 92.2057 80.4149 92.85C77.0322 96.0598 71.8927 97.7418 65.674 97.7418C64.1844 97.7384 62.6961 97.6495 61.2167 97.4755C53.6486 96.5441 46.4018 93.8613 40.0515 89.6402C28.4083 81.6974 23.9884 69.5496 22.3905 63.0085C21.1664 58.112 18.9844 44.9831 26.8898 33.5735C28.5521 31.155 30.5146 28.9571 32.7301 27.0324C32.7278 27.0138 32.7278 26.9949 32.7301 26.9763H32.7768C35.4922 24.629 38.6173 22.8028 41.9952 21.5892C45.1372 20.4979 48.4343 19.919 51.7601 19.8746C64.4032 19.7671 74.0326 28.0976 77.9246 32.0924L92.7074 23.6824C93.0118 23.5103 93.3721 23.4659 93.7092 23.5587C94.0463 23.6515 94.3329 23.874 94.5063 24.1777C94.6783 24.4821 94.7229 24.8422 94.63 25.1793C94.5372 25.5164 94.3146 25.803 94.011 25.9765L79.7981 34.0501C82.4344 37.0359 84.3522 40.5855 85.4048 44.4271C86.3357 47.8371 86.5693 51.3998 86.0916 54.9022C89.1239 53.3977 92.2263 53.1735 94.5484 54.5191C95.3411 54.9815 96.0292 55.6037 96.5689 56.346C97.1085 57.0884 97.4881 57.9348 97.6834 58.8315C98.6693 63.2374 94.5296 68.5591 87.8343 71.6241Z" fill="white"/>
<path d="M100.015 58.3362C99.7512 57.1195 99.2374 55.9708 98.5063 54.9631C97.7752 53.9553 96.8427 53.1104 95.768 52.4819C93.6122 51.3106 91.0995 50.9778 88.713 51.5474C88.7311 48.9359 88.3915 46.3343 87.7038 43.8149C86.8128 40.5523 85.3409 37.4771 83.3587 34.7368L95.198 28.0088C96.0374 27.5262 96.652 26.7312 96.9076 25.7973C97.1631 24.8634 97.039 23.8663 96.5623 23.0236C96.0805 22.1846 95.2868 21.57 94.3539 21.3136C93.4211 21.0572 92.4246 21.1797 91.5817 21.6546L78.336 29.1815C73.8133 24.8784 64.2913 17.5337 52.0454 17.5337H51.7838C48.1962 17.591 44.6408 18.222 41.2526 19.4026C37.9691 20.5835 34.9045 22.3013 32.1837 24.486L30.6746 25.7661C28.5433 27.7088 26.6418 29.8893 25.0072 32.2652C17.84 42.6141 18.3914 54.1779 19.5454 60.7003H19.438L20.1434 63.5924C21.8207 70.4653 26.4696 83.2158 38.7622 91.5977C45.4344 96.0216 53.046 98.8292 60.9927 99.7975C62.5622 99.9811 64.1409 100.075 65.721 100.078C72.6032 100.078 78.2566 98.1669 82.0738 94.5459C82.8611 93.8037 83.5745 92.9869 84.2043 92.107C85.2753 90.6655 86.1885 89.1132 86.9282 87.4768C89.4372 82.029 90.0446 76.3102 90.1707 73.0958C97.0996 69.4514 101.118 63.5317 100.015 58.3362ZM86.8628 69.4888L85.4985 70.1149V71.6146C85.4985 73.4228 85.293 79.7724 82.6485 85.5192C82.0423 86.8617 81.2935 88.1352 80.4152 89.3177L80.3777 89.3691C79.9213 90.0099 79.4033 90.6045 78.8312 91.1445C75.9017 93.9479 71.3557 95.3963 65.6977 95.3963C64.2923 95.394 62.8882 95.3098 61.4927 95.144C54.2979 94.2655 47.4074 91.7201 41.3694 87.7105C31.1419 80.7535 26.8014 70.2737 25.0166 63.8354L24.6662 62.4337C23.4748 57.6727 21.4985 45.4596 28.8198 34.8676C30.3339 32.6573 32.1151 30.6424 34.1229 28.8685L34.3191 28.7003C36.8175 26.5413 39.692 24.8608 42.7991 23.743C45.6944 22.7368 48.7329 22.2036 51.7978 22.1638H52.0174C63.8101 22.1638 72.8788 30.2 76.2475 33.6715L77.5044 34.9704L78.0323 35.5685C80.4502 38.2815 82.209 41.5161 83.1717 45.0204C84.0161 48.1268 84.2274 51.3713 83.7932 54.561L83.1998 58.9249L87.1478 56.9672C89.554 55.7711 91.8201 55.6076 93.3993 56.5C93.9079 56.7996 94.3495 57.2006 94.6967 57.678C95.0439 58.1554 95.2893 58.6991 95.4176 59.2753C96.1371 62.5646 92.4462 66.9424 86.8628 69.4981V69.4888Z" fill="white"/>
<path d="M97.7302 58.8266C97.5343 57.9295 97.1546 57.0826 96.615 56.3396C96.0754 55.5965 95.3877 54.9734 94.5951 54.5095C92.259 53.1686 89.1754 53.3929 86.1385 54.8926C86.6162 51.3903 86.3826 47.8275 85.4517 44.4175C84.3981 40.5778 82.4804 37.0299 79.845 34.0452L94.0579 25.9669C94.3612 25.7944 94.5836 25.5086 94.6765 25.1722C94.7693 24.8359 94.725 24.4765 94.5531 24.1728C94.4677 24.022 94.3533 23.8895 94.2166 23.783C94.0799 23.6765 93.9236 23.5979 93.7565 23.5519C93.5894 23.5059 93.4148 23.4933 93.2429 23.5149C93.0709 23.5364 92.9049 23.5917 92.7543 23.6775L77.9714 32.0875C74.0982 28.0927 64.4734 19.7622 51.807 19.8697C48.481 19.9122 45.1835 20.4912 42.042 21.5844C38.6641 22.7979 35.539 24.6241 32.8237 26.9714H32.7769C32.7747 26.9901 32.7747 27.0089 32.7769 27.0275C30.5612 28.9519 28.5987 31.1499 26.9366 33.5686C19.0312 44.9875 21.2132 58.1165 22.4374 63.0036C24.0353 69.5447 28.4552 81.6925 40.1031 89.6353C46.4506 93.8575 53.6966 96.5389 61.2636 97.4659C62.7427 97.6437 64.2311 97.7342 65.7209 97.7369C71.9396 97.7369 77.079 96.0502 80.4663 92.8451C81.1463 92.1984 81.7628 91.4881 82.3073 90.7239C83.2875 89.4068 84.1224 87.9875 84.7975 86.4909C87.6335 80.3235 87.8578 73.6376 87.8578 71.6192C94.5297 68.5589 98.6693 63.2326 97.7302 58.8266ZM34.1879 27.8638C36.3607 26.0433 38.8021 24.5697 41.4253 23.4953C47.0977 25.4715 52.303 28.5934 56.7175 32.6669C59.1724 34.9362 61.3577 37.4806 63.2306 40.2499L37.2856 54.8926C35.8918 51.793 34.8544 48.5453 34.1927 45.2118C33.0737 39.4828 33.0783 33.591 34.2067 27.8638H34.1879ZM51.8023 21.4349H52.0592C63.5996 21.4349 72.5236 28.8683 76.4343 32.7977L64.6088 39.4743C62.6518 36.5703 60.3624 33.9047 57.7873 31.5315C53.6859 27.7426 48.9176 24.7469 43.724 22.6963C46.3509 21.8986 49.0761 21.4709 51.821 21.4255L51.8023 21.4349ZM28.2076 34.461C29.4132 32.7082 30.782 31.0734 32.2958 29.5785C31.4908 34.8712 31.6094 40.2633 32.6462 45.5155C33.3437 49.0154 34.4411 52.4236 35.9168 55.6729L23.8997 62.4523C22.7316 57.6352 20.7694 45.2258 28.2263 34.461H28.2076ZM86.7085 70.3904L86.2412 70.6053V71.138C86.2646 71.9463 86.3767 79.2162 83.3305 85.8414C82.6954 87.2403 81.9123 88.567 80.9944 89.7988C80.5037 90.4859 79.9483 91.1242 79.3357 91.7051C71.1032 99.5077 52.4985 96.1951 40.9441 88.3364C38.5575 86.7136 36.3629 84.8247 34.4029 82.7064C37.8743 81.4542 40.3226 78.5014 40.6497 75.1047C41.0048 71.4744 38.7807 68.8673 38.3462 68.3767C42.1494 68.6383 45.3546 65.8069 45.6489 62.4196C45.8825 59.6163 44.1071 56.9484 41.4439 55.8364L78.3966 34.8394C80.9921 37.6937 82.8792 41.119 83.9051 44.838C84.8961 48.4494 85.0558 52.2385 84.3724 55.9205C83.0364 56.8228 81.8225 57.8938 80.7607 59.107L81.9475 60.1489C85.6853 55.8691 90.6845 54.075 93.8009 55.8738C94.3987 56.2293 94.9182 56.7025 95.3278 57.2647C95.7374 57.8269 96.0285 58.4663 96.1837 59.1444C96.9967 62.9382 93.016 67.6805 86.7272 70.3904H86.7085Z" fill="#022F45"/>
<path d="M65.8327 79.4922C62.3799 78.9549 59.5157 77.2589 56.89 74.9461C57.522 74.2507 58.2987 73.7021 59.1654 73.3389C60.1789 72.9176 61.2636 72.694 62.3611 72.6801C60.2586 71.1803 57.0582 71.8765 55.4136 73.8388C53.6895 75.7311 53.4185 78.9783 55.1706 80.8798C54.8907 78.9311 55.3855 76.9502 56.5489 75.362C57.1583 76.8514 58.1032 78.1801 59.3101 79.2446C61.4259 81.1226 64.1576 82.1584 66.9867 82.1554C70.1825 82.1554 73.5278 80.7911 75.5135 78.2681C72.3831 79.3614 69.1079 80.0295 65.8327 79.4922Z" fill="#022F45"/>
<path d="M70.0567 57.2758C67.1926 57.6169 64.6136 56.0377 62.8896 53.538C62.712 57.2758 66.6646 60.4249 70.3977 59.8362C74.1635 59.4111 77.1071 55.2901 75.8363 51.7065C74.9252 54.5986 72.9114 56.8693 70.0567 57.2758Z" fill="#022F45"/>
<path d="M66.5996 48.1977C68.8049 46.698 71.2158 45.8149 73.8462 46.3522C74.7412 46.5312 75.6161 46.7989 76.458 47.1512C74.2528 43.2218 67.9218 43.946 66.5996 48.1977Z" fill="#022F45"/>
</g>
<defs>
<clipPath id="clip0_51_8642">
<rect width="81.3434" height="82.5535" fill="white" transform="translate(18.8584 17.5244)"/>
</clipPath>
</defs>
</svg>

<svg width="118" height="118" fill="none" xmlns="http://www.w3.org/2000/svg"><circle cx="59.325" cy="59.003" r="58.177" fill="#fff" stroke="#022F45"/><g clip-path="url(#a)"><path d="M87.834 71.624c0 2.019-.224 8.71-3.06 14.876a22.894 22.894 0 0 1-2.49 4.229 14.447 14.447 0 0 1-1.87 2.121c-3.382 3.21-8.521 4.892-14.74 4.892a38.92 38.92 0 0 1-4.457-.267A49.06 49.06 0 0 1 40.05 89.64c-11.643-7.943-16.063-20.09-17.66-26.632-1.225-4.896-3.407-18.025 4.499-29.434a34.705 34.705 0 0 1 5.84-6.542.229.229 0 0 1 0-.056h.047a29.186 29.186 0 0 1 9.218-5.387 31.024 31.024 0 0 1 9.765-1.714c12.643-.108 22.273 8.223 26.165 12.217l14.782-8.41a1.323 1.323 0 0 1 1.8.496 1.322 1.322 0 0 1-.496 1.799L79.798 34.05a26.098 26.098 0 0 1 5.607 10.377c.93 3.41 1.164 6.973.687 10.475 3.032-1.504 6.134-1.729 8.456-.383a6.626 6.626 0 0 1 3.135 4.313c.986 4.405-3.153 9.727-9.849 12.792Z" fill="#fff"/><path d="M100.015 58.336a8.987 8.987 0 0 0-4.247-5.854 9.943 9.943 0 0 0-7.055-.935 28.611 28.611 0 0 0-1.01-7.732 28.136 28.136 0 0 0-4.344-9.078l11.839-6.728a3.668 3.668 0 0 0 1.364-4.985 3.667 3.667 0 0 0-4.98-1.37l-13.246 7.527c-4.523-4.303-14.045-11.647-26.29-11.647h-.262a33.639 33.639 0 0 0-10.531 1.869 31.524 31.524 0 0 0-9.07 5.083l-1.508 1.28a37.731 37.731 0 0 0-5.668 6.5C17.84 42.613 18.391 54.177 19.545 60.7h-.107l.705 2.892c1.678 6.873 6.327 19.624 18.62 28.006a51.502 51.502 0 0 0 22.23 8.2c1.57.183 3.148.277 4.728.28 6.882 0 12.536-1.911 16.353-5.532.787-.742 1.5-1.56 2.13-2.439a25.098 25.098 0 0 0 2.724-4.63c2.51-5.448 3.117-11.167 3.243-14.381 6.929-3.645 10.947-9.564 9.844-14.76ZM86.863 69.49l-1.364.626v1.5c0 1.808-.206 8.157-2.85 13.904a20.563 20.563 0 0 1-2.234 3.799l-.037.051c-.457.64-.975 1.236-1.547 1.775-2.93 2.804-7.475 4.252-13.133 4.252a36.143 36.143 0 0 1-4.205-.252 46.582 46.582 0 0 1-20.124-7.434c-10.227-6.956-14.568-17.436-16.352-23.875l-.35-1.401c-1.192-4.761-3.169-16.974 4.153-27.566a32.556 32.556 0 0 1 5.303-6l.196-.168a26.893 26.893 0 0 1 8.48-4.957 28.541 28.541 0 0 1 8.999-1.58h.22c11.792 0 20.86 8.037 24.23 11.509l1.256 1.298.528.599a23.604 23.604 0 0 1 5.14 9.451 24.02 24.02 0 0 1 .621 9.541l-.593 4.364 3.948-1.958c2.406-1.196 4.672-1.36 6.251-.467a4.308 4.308 0 0 1 2.019 2.775c.72 3.29-2.972 7.667-8.555 10.223v-.01Z" fill="#fff"/><path d="M97.73 58.827a6.645 6.645 0 0 0-3.135-4.317c-2.336-1.341-5.42-1.117-8.457.383a26.287 26.287 0 0 0-.686-10.476 26.109 26.109 0 0 0-5.607-10.372l14.213-8.078a1.318 1.318 0 1 0-1.304-2.29l-14.783 8.41c-3.873-3.994-13.498-12.325-26.164-12.217a30.914 30.914 0 0 0-9.765 1.714 29.182 29.182 0 0 0-9.218 5.387h-.047a.24.24 0 0 0 0 .056 34.676 34.676 0 0 0-5.84 6.542c-7.906 11.418-5.724 24.547-4.5 29.435 1.598 6.54 6.018 18.688 17.666 26.631a48.955 48.955 0 0 0 21.16 7.83c1.48.179 2.968.27 4.458.272 6.219 0 11.358-1.687 14.745-4.892a14.695 14.695 0 0 0 1.841-2.121 22.779 22.779 0 0 0 2.49-4.233c2.837-6.168 3.06-12.853 3.06-14.872 6.673-3.06 10.812-8.386 9.873-12.792ZM34.188 27.864a27.497 27.497 0 0 1 7.237-4.369 43.797 43.797 0 0 1 15.293 9.172 43.553 43.553 0 0 1 6.513 7.583L37.286 54.893a44.94 44.94 0 0 1-3.093-9.681 45.059 45.059 0 0 1 .014-17.348h-.02Zm17.614-6.43h.257c11.54 0 20.465 7.434 24.375 11.364L64.61 39.474a45.002 45.002 0 0 0-6.822-7.942 45.172 45.172 0 0 0-14.063-8.836 29.548 29.548 0 0 1 8.097-1.27l-.019.009ZM28.208 34.462a33.712 33.712 0 0 1 4.088-4.883 46.324 46.324 0 0 0 .35 15.938 46.58 46.58 0 0 0 3.27 10.157L23.9 62.453c-1.168-4.818-3.13-17.227 4.326-27.992h-.018Zm58.5 35.93-.467.214v.533c.024.808.136 8.078-2.91 14.703a21.492 21.492 0 0 1-2.337 3.958 13.195 13.195 0 0 1-1.658 1.906c-8.233 7.803-26.837 4.49-38.392-3.369a38.095 38.095 0 0 1-6.541-5.63c3.471-1.252 5.92-4.205 6.247-7.601.355-3.63-1.87-6.238-2.304-6.728 3.803.261 7.009-2.57 7.303-5.957.233-2.804-1.542-5.472-4.205-6.584L78.397 34.84a24.576 24.576 0 0 1 5.508 9.999c.991 3.611 1.15 7.4.467 11.082a18.731 18.731 0 0 0-3.611 3.187l1.187 1.042c3.737-4.28 8.737-6.074 11.853-4.275a5.14 5.14 0 0 1 2.383 3.27c.813 3.794-3.168 8.536-9.457 11.246h-.019Z" fill="#022F45"/><path d="M65.833 79.492c-3.453-.537-6.317-2.233-8.943-4.546a6.436 6.436 0 0 1 2.275-1.607 8.61 8.61 0 0 1 3.196-.659c-2.102-1.5-5.303-.804-6.947 1.159-1.724 1.892-1.995 5.14-.243 7.04a7.527 7.527 0 0 1 1.378-5.517 10.457 10.457 0 0 0 2.761 3.883 11.546 11.546 0 0 0 7.677 2.91c3.196 0 6.54-1.364 8.526-3.887-3.13 1.093-6.405 1.761-9.68 1.224ZM70.057 57.276c-2.864.34-5.443-1.238-7.167-3.738-.178 3.738 3.775 6.887 7.508 6.298 3.766-.425 6.71-4.546 5.438-8.13-.91 2.893-2.925 5.163-5.78 5.57ZM66.6 48.198c2.205-1.5 4.616-2.383 7.246-1.846.895.18 1.77.447 2.612.8-2.205-3.93-8.536-3.206-9.858 1.046Z" fill="#022F45"/></g><defs><clipPath id="a"><path fill="#fff" transform="translate(18.858 17.524)" d="M0 0h81.343v82.553H0z"/></clipPath></defs></svg>
